X:639
T:Answer to Ould Robing Gray. JBut.637, The
B:John Buttrey MS, poss. Lincolnshire, early 19thC
S:https://buttreymilitarysocialtunes1800.wordpress.com/
Z:Village Music Project 2019 Steve Dumpleton
N:Quaver rest added at start of 'B'-music to preserve
N:rhythmic integrity with pick-up quavers on repeats.
N:Similarly, the last note changed from a minim in manuscript
N:to a crotchet in transcription.
M:C|
L:1/8
Q:1/2=60
K:G
|:Bc|dBAG G>AB>G|EGce g2 fe|d>ed>B AGcB|edcB BABc|
dBAG GABG|EGce g2 fe|dedB AGgB|dedD G2:|
|:"quaver rest added"zB|edeg BABc|d^cde A3B|cdef gfed|cB/d/ c/B/A/G/ E3 D|
G>A c/B/A/G/ dedB|AB c/B/A/G/ e3 f|gd e/d/c/B/ edBc|dedD G2:|

